X: 40464
T: Tom Swifty's
R: jig
M: 6/8
K: Dmixolydian
dcA dcA|AGE CEG|dcA dcd|ege dcA|
dcA dcA|AGE CEG|AcA GEC|DED D3:|
GEG c2G|cde dcA|dcA AGE|dcA AGE|
GEG c2G|cde dcA|dcA GEC|DED D3:|

